X: 212
T: Alice by the Window (h'pipe)
C: BB 12/05
N: 012049
L: 1/8
M: 4/4
R: hornpipe
Q: 1/4 = 160
K: D
AG | "D" FDFA dcBA | "G" GFGB gfed |\
"D" FDFA dBgf | "Em" efdB "A" A2 AG |
"D" FDFA dcBA | "G"GFGB gfeg |\
"D" fdAF "G"GBAG | "D" F2 D2 D2 :|
FG | "D" Adcd fdfa | "Em" bgeg "D" fedc |\
"G" Bggf gfef | "A7" gecB A2 FG |
"D" Adcd fdfa | "Em" bgeg "Bm" fdcB |\
"D" Adcd "A7"eage |  "D" f2 d2 d2 :|
%%%%%%%%%%%%%%%%%%%%%%
